X: 12384
T: Fandangu
R: waltz
M: 3/4
K: Gmajor
B2 BA BG|AG FG FG|B2 AB cG|AG G2 G2:|
|:B2 BA BG|AG G2 G2|B2 AB cG|AG G2 G2:|
gf ef ga|f4 d2|f2 ef ge|dc B4|
gf ef ga|f4 d2|e2 dc BA|G4 AB|
|:e4 e2|cB A2 Bc|d4 d2|1 BA G2 AB:|2 BA G4||

